!!!!SEGMENT: pl-kozmzk--mzk-m-313_troschel-wilhelm--piesn-ludowa-wenecka.krn
!!!cenid: 18xx:3047
!!!COM: Troschel, Wilhelm
!!!COM-rismid: pe30024099
!!!CDT: 1823/08/23-1887/03/02
!!!CNT: Polish
!!!OTL: Pieśń ludowa wenecka
!!!PDT:
!!!AGN: Secular
!!!SMS-siglum: PL-KOZmzk
!!!SMS-shelfmark: mzk/m/313
!!!SMS-shelfwork: W
!!!SMS-variant:
!!!SMS-altvar:
!!!NIFC-rismid: 1001099483
!!!URL-scan: https://repozytorium.nifc.pl/islandora/object/pl-kozmzk%3A6375/datastream/PDF/view
!!!ONB-nifc:
!!!OMD: Allegretto.
!!!key:
**kern	**kern	**fing	**dynam	**kern	**text	**dynam
*part3	*part2	*	*part2	*part1	*part1	*part1
*staff3	*staff2	*	*	*staff1	*staff1	*
*Ipiano	*Ipiano	*	*	*Iempty	*	*
*I"PIANO.	*I"PIANO.	*	*	*I"Śpiew.	*	*
*clefF4	*clefG2	*	*	*clefG2	*	*
*k[f#]	*k[f#]	*	*	*k[f#]	*	*
*G:	*G:	*	*	*G:	*	*
*M6/8	*M6/8	*	*	*M6/8	*	*
=1	=1	=1	=1	=1	=1	=1
*^	*	*	*	*	*	*
(4B/	2.G^^\	2.r	.	p	2.r	.	.
8d/	.	.	.	.	.	.	.
4c 4A/	.	.	.	.	.	.	.
8d/)	.	.	.	.	.	.	.
=2	=2	=2	=2	=2	=2	=2	=2
(4B/	2.G^^\	2.r	.	.	2.r	.	.
8d/	.	.	.	.	.	.	.
4c 4A/	.	.	.	.	.	.	.
8d/)	.	.	.	.	.	.	.
=3	=3	=3	=3	=3	=3	=3	=3
*	*	*^	*	*	*	*	*
4B/	2.G^^\	8.bb/L	4.gg\	.	.	2.r	.	.
.	.	16aa/K	.	.	.	.	.	.
8d/	.	8bb/J	.	.	.	.	.	.
4c 4A/	.	8ddd/L	4.ff#\	.	.	.	.	.
.	.	8ccc/	.	.	.	.	.	.
8d/	.	8aa/J	.	.	.	.	.	.
=4	=4	=4	=4	=4	=4	=4	=4	=4
4B/	2.G^^\	8.gg/L	8.gg\L	.	.	2.r	.	.
.	.	16ff#/K	16ff#\K	.	.	.	.	.
8d/	.	8ee/J	8ee\J	.	.	.	.	.
4c 4A/	.	8dd'/L	8dd\L	.	.	.	.	.
.	.	8ee'/	8ee\	.	.	.	.	.
8d/	.	8ff#'/J	8ff#\J	.	.	.	.	.
!!linebreak:original
=5	=5	=5	=5	=5	=5	=5	=5	=5
4B/	2.G^^\	8gg/L	4.gg\	1	.	2.r	.	.
.	.	8aa/	.	3	.	.	.	.
8d/	.	8bb/J	.	.	.	.	.	.
4c 4A/	.	8ccc/L	4.ff#\	.	.	.	.	.
.	.	8bb/	.	.	.	.	.	.
8d/	.	8aa/J	.	.	.	.	.	.
=6	=6	=6	=6	=6	=6	=6	=6	=6
4B/	2.G^^\	[4.ddd/	8.gg\L	.	.	2.r	.	.
.	.	.	16aa\K	.	.	.	.	.
8d/	.	.	8bb\J	.	.	.	.	.
4c 4A/	.	8ddd/L]	4.ccc\	.	<	.	.	.
.	.	8eee/	.	.	.	.	.	.
8d/	.	8fff#/J	.	.	[[	.	.	.
=7	=7	=7	=7	=7	=7	=7	=7	=7
4B/	2.G^^\	8.ggg/L	4.bb\	.	>	2.r	.	.
.	.	16fff#/K	.	.	.	.	.	.
8d/	.	8eee/J	.	.	.	.	.	.
4c 4A/	.	8ddd'/L	4.ff#\	.	]	.	.	.
.	.	8ccc'/	.	.	.	.	.	.
8d/	.	8aa'/J	.	.	.	.	.	.
=8	=8	=8	=8	=8	=8	=8	=8	=8
4B/	2.G^^\	8.gg/L	8.gg\L	.	.	2.r	.	.
.	.	16ff#/K	16ff#\K	.	.	.	.	.
8d/	.	8ee/J	8ee\J	.	.	.	.	.
4c 4A/	.	8dd'/L	8dd\L	.	.	.	.	.
.	.	8ee'/	8ee\	.	.	.	.	.
8d/	.	8ff#'/J	8ff#\J	.	.	.	.	.
=9	=9	=9	=9	=9	=9	=9	=9	=9
4B/	2.G^^\	8.gg/L	4.gg\	1	.	2.r	.	.
.	.	16aa/K	.	3	.	.	.	.
8d/	.	8bb/J	.	.	.	.	.	.
4c 4A/	.	8ccc/L	4.ff#\	.	.	.	.	.
.	.	8aa/	.	.	.	.	.	.
8d/	.	8ddd/J	.	.	.	.	.	.
*v	*v	*	*	*	*	*	*	*
!!linebreak:original
=10	=10	=10	=10	=10	=10	=10	=10
8B 8G\	8gg/	8gg\	.	.	2.r	.	.
8r	8r	8ryy	.	.	.	.	.
!	!LO:TX:a:i:t=molto staccato	!	!	!LO:DY:rj	!	!	!
8G\	8b 8g 8d/	8ryy	.	pp	.	.	.
8G\L	8bL 8g 8d/	4ryy	.	.	.	.	.
8r	8r	.	.	.	.	.	.
8G\J	8bJ 8g 8d/	8ryy	.	.	.	.	.
*	*v	*v	*	*	*	*	*
=11	=11	=11	=11	=11	=11	=11
8G\L	8bL 8g 8d/	.	.	2.r	.	.
8r	8r	.	.	.	.	.
8G\J	8bJ 8g 8d/	.	.	.	.	.
8G\L	8bL 8g 8d/	.	.	.	.	.
8r	8r	.	.	.	.	.
8G\J	8bJ 8g 8d/	.	.	.	.	.
=12	=12	=12	=12	=12	=12	=12
8G\L	8bL 8g 8d/	.	.	4b\	Prze-	.
8r	8r	.	.	.	.	.
8G\J	8gJ 8d 8B/	.	.	8b\	-stań	.
8G\L	8f#L 8d 8c/	.	.	8.a\L	my-	.
8r	8r	.	.	.	.	.
.	.	.	.	16b\Jk	.	.
8G\J	8f#J 8d 8c/	.	.	8a/	-śleć	.
=13	=13	=13	=13	=13	=13	=13
8G\L	8gL 8d 8B/	.	.	4g/	o	.
8r	8r	.	.	.	.	.
8G\J	8gJ 8d 8B/	.	.	8d/	nie-	.
8G\L	8gL 8d 8B/	.	.	4g/	-do-	.
8r	8r	.	.	.	.	.
8G\J	8gJ 8d 8B/	.	.	8b\	-li,	.
=14	=14	=14	=14	=14	=14	=14
8G\L	8gL 8d 8B/	.	.	4dd\	U-	.
8r	8r	.	.	.	.	.
8G\J	8gJ 8d 8B/	.	.	8dd\	-koj	.
8G\L	8gL 8c#X 8A#X/	.	.	8.ee^^\L	żal	.
8r	8r	.	.	.	.	.
.	.	.	.	16dd\Jk	.	.
8G\J	8gJ 8e 8A#/	.	.	8cc#X\	i	.
!!linebreak:original
=15	=15	=15	=15	=15	=15	=15
8G\L	8gL 8d 8B/	.	.	[4.dd\	łzy.	.
8r	8r	.	.	.	.	.
8G\J	8gJ 8d 8B/	.	.	.	.	.
8G\L	8gL 8d 8B/	.	.	8dd\]	.	.
8r	8r	.	.	8r	.	.
8G\J	8gJ 8d 8B/	.	.	8r	.	.
=16	=16	=16	=16	=16	=16	=16
8D\L	8f#L 8d 8A/	.	.	4dd\	I	.
8r	8r	.	.	.	.	.
8D\J	8f#J 8d 8A/	.	.	8a/	do	.
.	.	.	.	8qb/	.	.
8D\L	8f#L 8d 8A/	.	.	8.a/L	czar-	.
8r	8r	.	.	.	.	.
.	.	.	.	16g#X/Jk	.	.
8D\J	8f#J 8d 8A/	.	.	8a/	-néj	.
=17	=17	=17	=17	=17	=17	=17
*	*^	*	*	*	*	*
8G\L	8gL 8d 8B/	4ryy	.	.	4b\	siądź	.
8r	8r	.	.	.	.	.	.
8G\J	8gJ 8d 8B/	8ryy	.	.	8b\	gon-	.
8G\L	8.b/L	8dL 8B\	.	.	8.dd\L	-do-	.
8r	.	8r	.	.	.	.	.
.	16a/K	.	.	.	16cc#X\Jk	.	.
8G\J	8g/J	8dJ 8B\	.	.	8b\	-li	.
*	*v	*v	*	*	*	*	*
=18	=18	=18	=18	=18	=18	=18
8A\L	8f#L 8d/	.	.	4a/	Co	.
8r	8r	.	.	.	.	.
8A\J	8f#J 8d/	.	.	8f#/	na	.
.	.	.	.	8qa/	.	.
8AA/L	8gL 8c#X 8A/	.	.	8.g/L	fa-	.
8r	8r	.	.	.	.	.
.	.	.	.	16f#/Jk	.	.
8AA/J	8gJ 8c# 8A/	.	.	8e/	-lach	.
=19	=19	=19	=19	=19	=19	=19
8D\L	8f#L 8d 8A/	.	.	[4.d/	drży.	.
8r	8r	.	.	.	.	.
8D\J	8f#J 8d 8A/	.	.	.	.	.
8D\L	8f#L 8d 8A/	.	.	8d/]	.	.
8r	8r	.	.	8r	.	.
8D\J	8f#J 8d 8A/	.	.	8r	.	.
!!pagebreak:original
=20	=20	=20	=20	=20	=20	=20
8D\L	8fnL 8d 8A/	.	.	4a/	W mie-	.
8r	8r	.	.	.	.	.
8D\J	8fJ 8d 8A/	.	.	8a/	-ście	.
.	.	.	.	8qb/	.	.
8D\L	8aL 8f 8d/	.	.	8.a/L	ciem-	.
8r	8r	.	.	.	.	.
.	.	.	.	16g#X/Jk	.	.
8D\J	8aJ 8f 8d/	.	.	8a/	-ném	.
=21	=21	=21	=21	=21	=21	=21
8A\L	8aL 8e 8cn/	.	.	4cc\	mar-	.
8r	8r	.	.	.	.	.
8A\J	8aJ 8e 8c/	.	.	8cc\	-mu-	.
.	.	.	.	8qdd/	.	.
8A\L	8ccL 8a 8e/	.	.	8.cc\L	-ro-	.
8r	8r	.	.	.	.	.
.	.	.	.	16b\Jk	.	.
8A\J	8aJ 8e 8c/	.	.	8cc\	-wem	.
=22	=22	=22	=22	=22	=22	=22
8E\L	8g#XL 8e 8d/	.	.	(4ee\	Ser-	.
8r	8r	.	.	.	.	.
8E\J	8g#J 8e 8d/	.	.	8b\)	-cu	.
.	.	.	.	8qcc/	.	.
8E\L	8g#L 8e 8d/	.	.	8.b\L	smu-	.
8r	8r	.	.	.	.	.
.	.	.	.	16a\Jk	.	.
8E\J	8g#J 8e 8d/	.	.	8b\	-tno	.
=23	=23	=23	=23	=23	=23	=23
8A\L	8aL 8e 8c/	.	.	[4.cc\	wciąż.	.
8r	8r	.	.	.	.	.
8A\J	8aJ 8e 8c/	.	.	.	.	.
8A\L	8aL 8e 8c/	.	.	8cc\]	.	.
8r	8r	.	.	8r	.	.
8A\J	8aJ 8e 8c/	.	.	8r	.	.
!!linebreak:original
=24	=24	=24	=24	=24	=24	=24
!	!	!	!	!	!	!LO:DY:a
8C/L	8bL 8e 8d/	.	f	4b\	Wiec	f
8r	8r	.	.	.	.	.
8C/J	8aJ 8e 8c/	.	.	8a/	po	.
8C/L	4g#X 4fn 4B/	.	.	4dd\	mo-	.
8r	.	.	.	.	.	.
8C/J	8a 8e 8c/	.	.	8cc\	-rzu	.
=25	=25	=25	=25	=25	=25	=25
8D\L	8aL 8d 8c/	.	.	4cc\	szma-	.
8r	8r	.	.	.	.	.
8D\J	8gJ 8d 8B/	.	.	8b\	-ra-	.
8D\L	4g 4c#X 4A#X/	.	.	4ee^\	-gdo-	.
8r	.	.	.	.	.	.
8D\J	8g 8d 8B/	.	.	8dd\	-wém	.
=26	=26	=26	=26	=26	=26	=26
8D\L	8gL 8d 8cn/	.	.	8.cc\L	z pie-	.
8r	8r	.	.	.	.	.
.	.	.	.	16dd\Jk	.	.
8D\J	8gJ 8d 8c/	.	.	8ee\	-śnią	.
8D\L	8f#L 8d 8c/	.	.	(4dd^^\	szczę-	.
8r	8r	.	.	.	.	.
8D\J	8f#J 8d 8c/	.	.	8a/)	-ścia	.
=27	=27	=27	=27	=27	=27	=27
8G\L	8gL 8d 8B/	.	.	[4.b\	dąż.	.
8r	8r	.	.	.	.	.
8G\J	8gJ 8d 8B/	.	.	.	.	.
8G\L	8gL 8d 8B/	.	.	8b\]	.	.
8r	8r	.	.	8r	.	.
8G\J	8bJ 8g 8d/	.	.	8r	.	.
=28	=28	=28	=28	=28	=28	=28
!	!	!	!	!	!	!LO:DY:a
8BL 8G#X 8C\	8ddL 8fn/	.	f	4dd\	Więc	f
8r	8r	.	.	.	.	.
8cJ 8A 8C\	8ccJ 8e/	.	.	8cc\	po	.
4A 4D#X 4C\	4ff#X 4f#X\	.	.	4ff#\	mo-	.
8A 8E 8C\	8ee 8e/	.	.	8ee\	-rzu	.
!!linebreak:original
=29	=29	=29	=29	=29	=29	=29
8BL 8Dn\	8eeL 8g\	.	.	4ee\	szma-	.
8r	8r	.	.	.	.	.
!	!	!	!	!	!	!LO:HP:a:t=dim.
8BJ 8D\	8ddJ 8g\	.	.	8dd\	-ra-	>
!	!	!	!LO:HP:b:t=dim.	!	!	!
4D\	4cc 4g 4e/	.	>	4cc\	-gdo-	.
8D\	8b 8g 8d/	.	.	8b\	-wém	.
=30	=30	=30	=30	=30	=30	=30
8c#XL 8D\	8aL 8g 8e/	.	.	8.a/L	z pie-	.
!LO:TX:b:i:t=poco rit.	!	!	!	!	!	!
8r	8r	.	.	.	.	.
.	.	.	.	16b/Jk	.	.
!	!	!	!	!LO:TX:a:i:t=rit.	!	!
8c#J 8D\	8aJ 8g 8e/	.	.	8a/	-śnią	.
4.cn 4.D;\	4.a 4.f#;/	.	.	(4dd;\	szczę-	.
.	.	.	.	8f#/)	-ścia	.
=31	=31	=31	=31	=31	=31	=31
*^	*^	*	*	*	*	*
!LO:TX:b:i:t=leggiero	!	!	!	!	!	!	!	!
(4GG/	2.GG\	(4g/	2.B\	.	p	4g/	dąż!	.
8D/	.	8d/	.	.	.	8r	.	.
4.G/)	.	4B/	.	.	.	4r	.	.
.	.	8d/)	.	.	.	8r	.	.
=32	=32	=32	=32	=32	=32	=32	=32	=32
!	!	!	!	!	!	!LO:TX:a:i:t=dolce	!	!
(4GG/	2.GG\	(4f#/	2.c\	.	.	(4.a/	A	.
8D/	.	8d/	.	.	.	.	.	.
4.A/)	.	4c/	.	.	.	4.dd\)	.	.
.	.	8d/)	.	.	.	.	.	.
=33	=33	=33	=33	=33	=33	=33	=33	=33
(4GG/	2.GG\	(4g/	2.B\	.	.	(8ee\L	.	.
.	.	.	.	.	.	8dd\	.	.
8D/	.	8d/	.	.	.	8b\J	.	.
4.G/)	.	4B/	.	.	.	8.g/L	.	.
.	.	.	.	.	.	16f#/K	.	.
.	.	8d/)	.	.	.	8g/J)	.	.
!!linebreak:original
=34	=34	=34	=34	=34	=34	=34	=34	=34
(4E/	2.GG\	2.a/	(4c#X\	.	.	(4a/	.	.
8G/)	.	.	8e\)	.	.	8e/)	.	.
(4E-X/	.	.	(4cn\	.	.	(8.a/L	.	.
.	.	.	.	.	.	16b/K	.	.
8F#/)	.	.	8e-X\)	.	.	8a/J)	.	.
=35	=35	=35	=35	=35	=35	=35	=35	=35
(4GG/	2.GG\	(4g/	2.B\	.	.	[4.g/	.	.
8D/	.	8d/	.	.	.	.	.	.
4.G/)	.	4B/	.	.	.	8g/]	.	.
.	.	.	.	.	.	8r	.	.
.	.	8d/)	.	.	.	8r	.	.
=36	=36	=36	=36	=36	=36	=36	=36	=36
(4GG/	2.GG\	(4f#/	2.c\	.	.	(4.a/	A	.
8D/	.	8d/	.	.	.	.	.	.
!	!	!	!	!	!	!	!	!LO:DY:a
4.A/)	.	4c/	.	.	.	[4.dd\)	.	<[
.	.	8d/)	.	.	.	.	.	.
=37	=37	=37	=37	=37	=37	=37	=37	=37
4.G/	4.GG\	[4.g/	(4B\	.	.	(8dd\L]	.	.
.	.	.	.	.	.	8ee\	.	.
.	.	.	8d\)	.	.	8ff#\J	.	.
4.C/	4.C\	4.g/]	8e\L	.	.	8gg\L	.	.
.	.	.	8c\	.	.	8ee\	.	.
.	.	.	8A\J	.	.	8cc\J)	.	.
*v	*v	*	*	*	*	*	*	*
*	*v	*v	*	*	*	*	*
=38	=38	=38	=38	=38	=38	=38
!	!	!	!	!	!	!LO:DY:a
8D\L	8gL 8B/	.	.	4b,\	.	>
8r	8r	.	.	.	.	.
8D\J	8gJ 8d 8B/	.	.	16dd\LL	.	.
.	.	.	.	16ee\JJ	.	]
8D\	8f# 8d 8c/	.	.	(4dd;\	.	.
8r;	8r;	.	.	.	.	.
8r	8r	.	.	16a/LL)	.	.
.	.	.	.	16b/JJ	.	.
!!pagebreak:original
=39	=39	=39	=39	=39	=39	=39
*^	*^	*	*	*	*	*
(4B/	2.G^^\	8.bb/L	4.gg\	.	p	[4.g/	.	.
.	.	16aa/K	.	.	.	.	.	.
8d/	.	8bb/J	.	.	.	.	.	.
4c 4A/	.	8ddd/L	4.ff#\	.	.	8g/]	.	.
.	.	8ccc/	.	.	.	8r	.	.
8d/)	.	8aa/J	.	.	.	8r	.	.
=40	=40	=40	=40	=40	=40	=40	=40	=40
4B/	2.G^^\	8.gg/L	8.gg\L	.	.	2.r	.	.
.	.	16ff#/K	16ff#\K	.	.	.	.	.
8d/	.	8ee/J	8ee\J	.	.	.	.	.
4c 4A/	.	8dd/L	8dd\L	.	.	.	.	.
.	.	8ee/	8ee\	.	.	.	.	.
8d/	.	8ff#/J	8ff#\J	.	.	.	.	.
=41	=41	=41	=41	=41	=41	=41	=41	=41
4B/	2.G^^\	8gg/L	4.gg\	1	.	2.r	.	.
.	.	8aa/	.	3	.	.	.	.
8d/	.	8bb/J	.	.	.	.	.	.
4c 4A/	.	8ccc/L	4.ff#\	.	.	.	.	.
.	.	8bb/	.	.	.	.	.	.
8d/	.	8aa/J	.	.	.	.	.	.
=42	=42	=42	=42	=42	=42	=42	=42	=42
4B/	2.G^^\	[4.ddd/	8.gg\L	.	.	2.r	.	.
.	.	.	16aa\K	.	.	.	.	.
8d/	.	.	8bb\J	.	.	.	.	.
4c 4A/	.	8ddd/L]	4.ccc\	1	<	.	.	.
.	.	8eee/	.	.	.	.	.	.
8d/	.	8fff#/J	.	.	[[	.	.	.
=43	=43	=43	=43	=43	=43	=43	=43	=43
4B/	2.G^^\	8.ggg/L	4.bb\	.	>	2.r	.	.
.	.	16fff#/K	.	.	.	.	.	.
8d/	.	8eee/J	.	.	.	.	.	.
4c 4A/	.	8ddd'/L	4.ff#\	.	]	.	.	.
.	.	8ccc'/	.	.	.	.	.	.
8d/	.	8aa'/J	.	.	.	.	.	.
!!linebreak:original
=44	=44	=44	=44	=44	=44	=44	=44	=44
4B/	2.G^^\	8.gg/L	8.gg\L	.	.	2.r	.	.
.	.	16ff#/K	16ff#\K	.	.	.	.	.
8d/	.	8ee/J	8ee\J	.	.	.	.	.
4c 4A/	.	8dd'/L	8dd\L	.	.	.	.	.
.	.	8ee'/	8ee\	.	.	.	.	.
8d/	.	8ff#'/J	8ff#\J	.	.	.	.	.
=45	=45	=45	=45	=45	=45	=45	=45	=45
4B/	2.G^^\	8.gg/L	4.gg\	.	.	2.r	.	.
.	.	16aa/K	.	3	.	.	.	.
8d/	.	8bb/J	.	.	.	.	.	.
4c 4A/	.	8ccc/L	4.ff#\	.	.	.	.	.
.	.	8aa/	.	.	.	.	.	.
8d/	.	8ddd/J	.	.	.	.	.	.
*v	*v	*	*	*	*	*	*	*
=46	=46	=46	=46	=46	=46	=46	=46
8B 8G\	8gg/	8gg\	.	.	2.r	.	.
8r	8r	8ryy	.	.	.	.	.
!	!LO:TX:a:i:t=staccato	!	!	!LO:DY:rj	!	!	!
8G\	8b 8g 8d/	8ryy	.	pp	.	.	.
8G\L	8bL 8g 8d/	4ryy	.	.	.	.	.
8r	8r	.	.	.	.	.	.
8G\J	8bJ 8g 8d/	8ryy	.	.	.	.	.
*	*v	*v	*	*	*	*	*
=47	=47	=47	=47	=47	=47	=47
8G\L	8bL 8g 8d/	.	.	2.r	.	.
8r	8r	.	.	.	.	.
8G\J	8bJ 8g 8d/	.	.	.	.	.
8G\L	8bL 8g 8d/	.	.	.	.	.
8r	8r	.	.	.	.	.
8G\J	8bJ 8g 8d/	.	.	.	.	.
=48	=48	=48	=48	=48	=48	=48
8G\L	8bL 8g 8d/	.	.	4b\	Już	.
8r	8r	.	.	.	.	.
8G\J	8gJ 8d 8B/	.	.	8b\	z błę-	.
8G\L	8f#L 8d 8c/	.	.	8.a/L	-ki-	.
8r	8r	.	.	.	.	.
.	.	.	.	16b/Jk	.	.
8G\J	8f#J 8d 8c/	.	.	8a/	-tu	.
!!linebreak:original
=49	=49	=49	=49	=49	=49	=49
8G\L	8gL 8d 8B/	.	.	4g/	zło-	.
8r	8r	.	.	.	.	.
8G\J	8gJ 8d 8B/	.	.	8d/	-te	.
8G\L	8gL 8d 8B/	.	.	4g/	o-	.
8r	8r	.	.	.	.	.
8G\J	8gJ 8d 8B/	.	.	8b\	-czy	.
=50	=50	=50	=50	=50	=50	=50
8G\L	8gL 8d 8B/	.	.	4dd\	Che-	.
8r	8r	.	.	.	.	.
8G\J	8gJ 8d 8B/	.	.	8dd\	-ru-	.
8G\L	8gL 8c#X 8A#X/	.	.	8.ee^^\L	-bi-	.
8r	8r	.	.	.	.	.
.	.	.	.	16dd\Jk	.	.
8G\J	8gJ 8e 8A#/	.	.	8cc#X\	-nów	.
=51	=51	=51	=51	=51	=51	=51
8G\L	8gL 8d 8B/	.	.	[4.dd\	ślą	.
8r	8r	.	.	.	.	.
8G\J	8gJ 8d 8B/	.	.	.	.	.
8G\L	8gL 8d 8B/	.	.	8dd\]	.	.
8r	8r	.	.	8r	.	.
8G\J	8gJ 8d 8B/	.	.	8r	.	.
=52	=52	=52	=52	=52	=52	=52
8D\L	8f#L 8d 8A/	.	.	4dd\	Swo-	.
8r	8r	.	.	.	.	.
8D\J	8f#J 8d 8A/	.	.	8a/	-ich	.
.	.	.	.	8qb/	.	.
8D\L	8f#L 8d 8A/	.	.	8.a/L	spoj-	.
8r	8r	.	.	.	.	.
.	.	.	.	16g#X/Jk	.	.
8D\J	8f#J 8d 8A/	.	.	8a/	-rzeń	.
!!linebreak:original
=53	=53	=53	=53	=53	=53	=53
*	*^	*	*	*	*	*
8G\L	8gL 8d 8B/	4ryy	.	.	4b\	blask	.
8r	8r	.	.	.	.	.	.
8G\J	8gJ 8d 8B/	8ryy	.	.	8b\	u-	.
8G\L	8.b/L	8dL 8B\	.	.	8.dd\L	-ro-	.
8r	.	8r	.	.	.	.	.
.	16a/K	.	.	.	16cc#X\Jk	.	.
8G\J	8g/J	8dJ 8B\	.	.	8b\	-czy	.
*	*v	*v	*	*	*	*	*
=54	=54	=54	=54	=54	=54	=54
8A\L	8f#L 8d/	.	.	4a/	Na	.
8r	8r	.	.	.	.	.
8A\J	8f#J 8d/	.	.	8f#/	twa-	.
.	.	.	.	8qa/	.	.
8AA/L	8gL 8c#X 8A/	.	.	8.g/L	-rzy-	.
8r	8r	.	.	.	.	.
.	.	.	.	16f#/Jk	.	.
8AA/J	8gJ 8c# 8A/	.	.	8e/	-czkę	.
=55	=55	=55	=55	=55	=55	=55
8D\L	8f#L 8d 8A/	.	.	[4.d/	twą.	.
8r	8r	.	.	.	.	.
8D\J	8f#J 8d 8A/	.	.	.	.	.
8D\L	8f#L 8d 8A/	.	.	8d/]	.	.
8r	8r	.	.	8r	.	.
8D\J	8f#J 8d 8A/	.	.	8r	.	.
=56	=56	=56	=56	=56	=56	=56
8D\L	8fnL 8d 8A/	.	.	4a/	Więc	.
8r	8r	.	.	.	.	.
8D\J	8fJ 8d 8A/	.	.	8a/	nim	.
.	.	.	.	8qb/	.	.
8D\L	8aL 8f 8d/	.	.	8.a/L	słoń-	.
8r	8r	.	.	.	.	.
.	.	.	.	16g#X/Jk	.	.
8D\J	8aJ 8f 8d/	.	.	8a/	-ce	.
!!pagebreak:original
=57	=57	=57	=57	=57	=57	=57
8A\L	8aL 8e 8cn/	.	.	4cc\	zbu-	.
8r	8r	.	.	.	.	.
8A\J	8aJ 8e 8c/	.	.	8cc\	-dzi	.
.	.	.	.	8qdd/	.	.
8A\L	8ccL 8a 8e/	.	.	8.cc\L	ró-	.
8r	8r	.	.	.	.	.
.	.	.	.	16b\Jk	.	.
8A\J	8aJ 8e 8c/	.	.	8cc\	-że	.
=58	=58	=58	=58	=58	=58	=58
8E\L	8g#XL 8e 8d/	.	.	(4ee\	ko-	.
8r	8r	.	.	.	.	.
8E\J	8g#J 8e 8d/	.	.	8b\)	-chaj,	.
.	.	.	.	8qcc/	.	.
8E\L	8g#L 8e 8d/	.	.	8.b/L	śmiej	.
8r	8r	.	.	.	.	.
.	.	.	.	16a/Jk	.	.
8E\J	8g#J 8e 8d/	.	.	8b\	się	.
=59	=59	=59	=59	=59	=59	=59
8A\L	8aL 8e 8c/	.	.	[4.cc\	marz.	.
8r	8r	.	.	.	.	.
8A\J	8aJ 8e 8c/	.	.	.	.	.
8A\L	8aL 8e 8c/	.	.	8cc\]	.	.
8r	8r	.	.	8r	.	.
8A\J	8aJ 8e 8c/	.	.	8r	.	.
=60	=60	=60	=60	=60	=60	=60
!	!	!	!	!	!	!LO:DY:a
8C/L	8bL 8e 8d/	.	f	4b\	I	f
8r	8r	.	.	.	.	.
8C/J	8aJ 8e 8c/	.	.	8a/	swe	.
8C/L	4g#X 4fn 4B/	.	.	4dd\	o-	.
8r	.	.	.	.	.	.
8C/J	8a 8e 8c/	.	.	8cc\	-czy	.
=61	=61	=61	=61	=61	=61	=61
8D\L	8aL 8d 8c/	.	.	4cc\	czar-	.
8r	8r	.	.	.	.	.
8D\J	8gJ 8d 8B/	.	.	8b\	-ne	.
8D\L	4g 4c#X 4A#X/	.	.	4ee^\	du-	.
8r	.	.	.	.	.	.
8D\J	8g 8d 8B/	.	.	8dd\	-że	.
!!linebreak:original
=62	=62	=62	=62	=62	=62	=62
8D\L	8gL 8d 8cn/	.	.	8.cc\L	Mnie	.
8r	8r	.	.	.	.	.
.	.	.	.	16dd\Jk	.	.
8D\J	8gJ 8d 8c/	.	.	8ee\	ca-	.
8D\L	8f#L 8d 8c/	.	.	(4dd^^\	-ło-	.
8r	8r	.	.	.	.	.
8D\J	8f#J 8d 8c/	.	.	8a/)	-wać	.
=63	=63	=63	=63	=63	=63	=63
8G\L	8gL 8d 8B/	.	.	[4.b\	każ.	.
8r	8r	.	.	.	.	.
8G\J	8gJ 8d 8B/	.	.	.	.	.
8G\L	8gL 8d 8B/	.	.	8b\]	.	.
8r	8r	.	.	8r	.	.
8G\J	8bJ 8g 8d/	.	.	8r	.	.
=64	=64	=64	=64	=64	=64	=64
!	!	!	!	!	!	!LO:DY:a
8BL 8G#X 8C\	8ddL 8fn/	.	f	4dd\	I	f
8r	8r	.	.	.	.	.
8cJ 8A 8C\	8ccJ 8e/	.	.	8cc\	swe	.
4A 4D#X 4C\	4ff#X 4f#X\	.	.	4ff#\	o-	.
8A 8E 8C\	8ee 8e\	.	.	8ee\	-czy	.
=65	=65	=65	=65	=65	=65	=65
8BL 8Dn\	8eeL 8g\	.	.	4ee\	czar-	.
8r	8r	.	.	.	.	.
8BJ 8D\	8ddJ 8g\	.	.	8dd\	-ne	.
!	!	!	!LO:HP:b:t=dim.	!	!	!LO:HP:a:t=dim.
4D\	4cc 4g 4e/	.	>	4cc\	du-	>
8D\	8b 8g 8d/	.	.	8b\	-że	.
=66	=66	=66	=66	=66	=66	=66
8c#XL 8D\	8aL 8g 8e/	.	.	8.a\L	Mnie	.
!LO:TX:b:i:t=poco rit.	!	!	!	!	!	!
8r	8r	.	.	.	.	.
.	.	.	.	16b\Jk	.	.
!	!	!	!	!LO:TX:a:i:t=rit.	!	!
8c#J 8D\	8aJ 8g 8e/	.	.	8a/	ca-	.
4.cn 4.D;\	4.a 4.f#;/	.	.	(4dd;\	-ło-	.
.	.	.	.	8f#/)	-wać	.
!!linebreak:original
=67	=67	=67	=67	=67	=67	=67
*^	*^	*	*	*	*	*
(4GG/	2.GG\	(4g/	2.B\	.	p	4g/	każ.	.
8D/	.	8d/	.	.	.	8r	.	.
4.G/)	.	4B/	.	.	.	4r	.	.
.	.	8d/)	.	.	.	8r	.	.
=68	=68	=68	=68	=68	=68	=68	=68	=68
!	!	!	!	!	!	!LO:TX:a:i:t=dolce	!	!
(4GG/	2.GG\	(4f#/	2.c\	.	.	(4.a/	A	.
8D/	.	8d/	.	.	.	.	.	.
4.A/)	.	4c/	.	.	.	4.dd\)	.	.
.	.	8d/)	.	.	.	.	.	.
=69	=69	=69	=69	=69	=69	=69	=69	=69
(4GG/	2.GG\	(4g/	2.B\	.	.	(8ee\L	.	.
.	.	.	.	.	.	8dd\	.	.
8D/	.	8d/	.	.	.	8b\J	.	.
4.G/)	.	4B/	.	.	.	8.g/L	.	.
.	.	.	.	.	.	16f#/K	.	.
.	.	8d/)	.	.	.	8g/J)	.	.
=70	=70	=70	=70	=70	=70	=70	=70	=70
(4E/	2.GG\	2.a/	(4c#X\	.	.	(4a/	.	.
8G/)	.	.	8e\)	.	.	8e/)	.	.
(4E-X/	.	.	(4cn\	.	.	(8.a/L	.	.
.	.	.	.	.	.	16b/K	.	.
8F#/)	.	.	8e-X\)	.	.	8a/J)	.	.
=71	=71	=71	=71	=71	=71	=71	=71	=71
(4GG/	2.GG\	(4g/	2.B\	.	.	[4.g/	.	.
8D/	.	8d/	.	.	.	.	.	.
4.G/)	.	4B/	.	.	.	8g/]	.	.
.	.	.	.	.	.	8r	.	.
.	.	8d/)	.	.	.	8r	.	.
=72	=72	=72	=72	=72	=72	=72	=72	=72
(4GG/	2.GG\	(4f#/	2.c\	.	.	(4.a/	A	.
8D/	.	8d/	.	.	.	.	.	.
!	!	!	!	!	!	!	!	!LO:DY:a
4.A/)	.	4c/	.	.	.	[4.dd\)	.	<[
.	.	8d/)	.	.	.	.	.	.
!!linebreak:original
=73	=73	=73	=73	=73	=73	=73	=73	=73
4.G/	4.GG\	[4.g/	(4B\	.	.	(8dd\L]	.	.
.	.	.	.	.	.	8ee\	.	.
.	.	.	8d\)	.	.	8ff#\J	.	.
4.C/	4.C\	4.g/]	8e\L	.	.	8gg\L	.	.
.	.	.	8c\	.	.	8ee\	.	.
.	.	.	8A\J	.	.	8cc\J)	.	.
*v	*v	*	*	*	*	*	*	*
*	*v	*v	*	*	*	*	*
=74	=74	=74	=74	=74	=74	=74
8D\L	8gL 8B/	.	.	8b\	.	.
8r	8r	.	.	16d/LL	.	.
.	.	.	.	16g/	.	.
8D\J	8gJ 8d 8B/	.	.	16b/	.	.
.	.	.	.	16ee/JJ	.	.
!	!	!	!	!LO:TX:t=P:problem=druga wersja zapisna jako ossia	!	!
8D\	8f# 8d 8c/	.	.	(8dd;\	.	.
8r;	8r;	.	.	16d/LL)	.	.
.	.	.	.	16f#/	.	.
8r	8r	.	.	16b/	.	.
.	.	.	.	16a/JJ	.	.
=75	=75	=75	=75	=75	=75	=75
8G 8GG\	8gL 8d 8B'/	.	.	8g/	.	.
8r	8r	.	.	8r	.	.
!	!	!	!LO:DY:rj	!	!	!
8G'\	8gJ 8d 8B'/	.	p	8r	.	.
8G'\L	8gL 8d 8B'/	.	.	4r	.	.
8D'\	8b 8g 8d'/	.	.	.	.	.
8BB'\J	8ddJ 8b 8g'/	.	.	8r	.	.
=76	=76	=76	=76	=76	=76	=76
8GG'/	8gg 8dd 8b'\	.	.	2.r	.	.
8r	8r	.	.	.	.	.
!	!	!	!LO:DY:rj	!	!	!
8r	8gg 8dd 8b'\	.	pp	.	.	.
4r	8ggL 8dd 8b'\	.	>	.	.	.
.	8bb 8gg 8dd'\	.	.	.	.	.
8r	8dddJ 8bb 8gg'\	.	.	.	.	.
=77	=77	=77	=77	=77	=77	=77
2.r	8ggg 8ddd 8bb'\	.	.	2.r	.	.
.	8r	.	]	.	.	.
.	8r	.	.	.	.	.
.	4r	.	.	.	.	.
.	8r	.	.	.	.	.
==	==	==	==	==	==	==
*-	*-	*-	*-	*-	*-	*-
!!!system-decoration: s1[(s2,s3)]
!!!AIN: 1 empty 2 piano
!!!ENC: Marcin Jachim
!!!END: 2021-09-09
